X:1
%
T:Rose Bud
M:2/4
L:1/8
R:Reel
S:Ryan’s Mammoth Collection (1883)
Z:AK/Fiddler’s Companion
K:Bb
F/E/ |  D/F/B/c/ dc/d/ | e/d/c/B/ GF/E/ | D/F/B/c/ d/B/A/B/ | g/f/d/B/ cF/E/ |
D/F/B/c/ dc/d/ | e/d/c/B/ GF/E/ | D/F/B/d/ c/B/A/c/ | BdB :|
|: B/c/ | d/B/A/B/ G/B/F/B/ | D/F/B/c/ d/B/A/B/ | g/B/F/B/ e/d/c/B/ | G/c/c/B/ A/B/c/e/ |
d/B/A/B/ G/B/F/B/ | D/F/B/c/ e/B/A/B/ | g/B/f/B/ e/d/c/B/ | A/F/G/A/ B :||

